usr/share/icons/biglinux-icons-material/24/actions/step_object_Spring.svg

<svg xmlns="http://www.w3.org/2000/svg" viewBox="0 0 24 24">
  <defs id="defs3051">
    <style type="text/css" id="current-color-scheme">
      .ColorScheme-Text {
        color:#363636;
      }
      </style>
  </defs><g transform="translate(1,1)">
 <path 
     style="fill:currentColor;fill-opacity:1;stroke:none" 
     d="M 5 4 L 5 5 L 12.892578 5 L 7 7 L 5 7 L 5 8 L 13.644531 8 L 6.8945312 11 L 5 11 L 5 12 L 13.644531 12 L 6.8945312 15 L 5 15 L 5 16 L 12.892578 16 L 7 18 L 5 18 L 5 19 L 18 19 L 18 18 L 10.107422 18 L 16 16 L 18 16 L 18 15 L 9.3554688 15 L 16.105469 12 L 18 12 L 18 11 L 9.3554688 11 L 16.105469 8 L 18 8 L 18 7 L 10.107422 7 L 16 5 L 18 5 L 18 4 L 5 4 z "
	 class="ColorScheme-Text"
     />
</g></svg>

<svg xmlns="http://www.w3.org/2000/svg" viewBox="0 0 24 24"><path d="M5 4v1h7.893L7 7H5v1h8.645l-6.75 3H5v1h8.645l-6.75 3H5v1h7.893L7 18H5v1h13v-1h-7.893L16 16h2v-1H9.355l6.75-3H18v-1H9.355l6.75-3H18V7h-7.893L16 5h2V4H5z" style="fill:currentColor;fill-opacity:1;stroke:none;color:#dedede" transform="translate(1 1)"/></svg>
